!!!!SEGMENT: pl-wtm--a-40-354-94_kagan-jakub--jak-cien-gdy-nadchodzi-cicha-srebrna-noc.krn
!!!cenid: 19xx:20
!!!COM: Kagan, Jakub
!!!COM-rismID: pe50046719
!!!CDT: 1896/02/07-1942
!!!CNT: Polish
!!!OTL: Jak cień/Gdy nadchodzi cicha srebrna noc
!!!PDT:
!!!AGN: Secular
!!!YEC: Copyright 2022 Narodowy Instytut Fryderyka Chopina (https://polishscores.org)
!!!YEM: License CC-BY-4.0 (https://creativecommons.org/licenses/by/4.0)
!!!SMS-siglum: PL-Wtm
!!!SMS-shelfmark: A.40.354/94
!!!SMS-variant:
!!!SMS-altvar:
!!!SMS-shelfwork: W
!!!NIFC-rismSourceID: 1001217918
!!!NIFC-rismChildID: 1001217918
!!!NIFC-islandoraID: pl-wtm:96903
!!!URL-pdf-islandora: https://repozytorium.nifc.pl/islandora/object/pl-wtm%3A96903/datastream/PDF/view
!!!URL-scan: https://polish.musicsources.pl/pl/lokalizacje/galeria/druki-muzyczne/21958/2 @EN{Scan on Polish Music Sources Website} @PL{Skany w portalu Dziedzictwo Muzyki Polskiej w otwartym dostępie}
!!!IIIF:
!!!ONB-nifc:
!!!AIN: 1 piano 1 vox
!!!key:
**kern	**kern	**dynam	**kern	**text	**text
*part2	*part2	*part2	*part1	*part1	*part1
*staff3	*staff2	*	*staff1	*staff1	*staff1
*I"PIANO	*	*	*I"CANTO.	*	*
*Ipiano	*	*	*Ivox	*	*
*ICklav	*	*	*ICvox	*	*
*IGacmp	*	*	*IGsolo	*	*
*clefF4	*clefG2	*	*clefG2	*	*
*k[f#]	*k[f#]	*	*k[f#]	*	*
*G:	*G:	*	*G:	*	*
*M2/4	*M2/4	*	*M2/4	*	*
*>[A,B,B]	*>[A,B,B]	*	*>[A,B,B]	*	*
=1	=1	=1	=1	=1	=1
*>A	*>A	*	*>A	*	*
8EE/L 8BB 8E	8G/L 8B 8e	p	2r	.	.
8EE/ 8BB 8E	8G/ 8B 8e	.	.	.	.
8EE/ 8BB 8E	8G/ 8B 8e	.	.	.	.
8EE/J 8BB 8E	8G/J 8B 8e	.	.	.	.
=2	=2	=2	=2	=2	=2
8EE/L 8BB 8E	8G/L 8B 8e	<	2r	.	.
8EE/ 8BB 8E	8G/ 8B 8e	.	.	.	.
8EE/ 8BB 8E	8G/ 8B 8e	.	.	.	.
8EE/J 8BB 8E	8G/J 8B 8e	[	.	.	.
=3||	=3||	=3||	=3||	=3||	=3||
*>B	*>B	*	*>B	*	*
*	*	*	*	*v:1	*v:2
!LO:TX:b:t=[segno]:rj	!LO:TX:a:t=[segno]:rj	!	!LO:TX:a:t=[segno]:rj	!	!
8EE/L 8BB 8G	[2ee\	f	[2ee\	Gdy	Nie
8E/J 8G 8B	.	.	.	.	.
8G/L 8B 8e	.	.	.	.	.
8BB/J	.	.	.	.	.
=4	=4	=4	=4	=4	=4
8EE/L 8BB 8G	16ee\LL]	.	16ee\]	.	.
.	16dd#X\	.	16dd#X\	nad-	ty
8G/J 8B 8e	16ee\	.	16ee\	-cho-	nie
.	16b\JJ	.	16b\	-dzi	myśl,
8G/L 8B 8e	16dd#\LL	.	16dd#\	ci-	że
.	16cc\	.	16cc\	-cha	to
8BB/J	16g\	.	16g/	sre-	złud-
.	16cc\JJ	.	16cc\	-brna	-ny
=5	=5	=5	=5	=5	=5
8EE/L 8BB 8G	[2b\	.	[2b\	noc	sen
8G/J 8B 8e	.	.	.	.	.
8G/L 8B 8e	.	.	.	.	.
8BB/J	.	.	.	.	.
=6	=6	=6	=6	=6	=6
8EE/L 8BB 8G	8b\]	.	8b\]	.	.
8G/J 8B	8e/L	.	8e/	Me	Co
8G/L 8B 8e	8f#/	.	8f#/	ser-	prze-
8BB/J	8g/J	.	8g/	-ce	-śni
!!LO:LB:g=original
=7	=7	=7	=7	=7	=7
*	*	*	*	*v:1	*v:2
8C/L	[2a/	.	[2a/	drży,	się
8E/J 8G 8A	.	.	.	.	.
8E/L 8G 8A	.	.	.	.	.
16C/L	.	.	.	.	.
16D/JJ	.	.	.	.	.
=8	=8	=8	=8	=8	=8
8D#X/L	8a/L]	.	8a/]	.	.
8F#/J 8A 8B	16b/L	.	16b\	I	Cho-
.	16a/JJ	.	16a/	o	-ciaż
8F#/L 8A 8B	8g/L	.	8g/	to-	cza-
8BB/J	8a/J	.	8a/	-bie	-rem
=9	=9	=9	=9	=9	=9
8E/L	[2b\	.	[2b\	śni	tchnie.
8G/J 8B	.	.	.	.	.
8G/L 8B	.	.	.	.	.
8BB/J	.	.	.	.	.
=10	=10	=10	=10	=10	=10
*	*^	*	*	*	*
8BB\ 8D#X 8A	4b/]	16d#X\LL 16f#	.	4b\]	.	.
.	.	16B\	<	.	.	.
8r	.	16c\	.	.	.	.
.	.	16d#\JJ	.	.	.	.
4r	4ryy	16e\LL	.	4r	.	.
.	.	16f#\	.	.	.	.
.	.	16a\	[	.	.	.
.	.	16cc\JJ	.	.	.	.
*	*v	*v	*	*	*	*
=11	=11	=11	=11	=11	=11
8E\L	[2ee\	f	[2ee\	Bo	Dziś
8G\J 8B 8e	.	.	.	.	.
8G\L 8B 8e	.	.	.	.	.
8BB\J	.	.	.	.	.
=12	=12	=12	=12	=12	=12
8E\L	16ee\LL]	.	16ee\]	.	.
.	16dd#X\	.	16dd#X\	mą	nie
8G\J 8B 8e	16ee\	.	16ee\	du-	mo-
.	16b\JJ	.	16b\	-szę	-gę
8G\L 8B 8e	16dd#\LL	.	16dd#\	wziął	się
.	16cc\	.	16cc\	już	u-
8BB\J	16g\	.	16g/	w swo-	-kry-
.	16cc\JJ	.	16cc\	-ją	-wać
!!LO:LB:g=original
=13	=13	=13	=13	=13	=13
*	*	*	*	*v:1	*v:2
8D\L	[2b\	.	[2b\	moc	z tem
8G\ 8B 8e	.	.	.	.	.
8G\ 8B 8e	.	.	.	.	.
8BB\J	.	.	.	.	.
=14	=14	=14	=14	=14	=14
8E\L	8b\]	.	8b\]	.	.
8E\ 8G 8B	8b\L	.	8b\	Mi-	Że
8E\ 8G 8B	8cc\	.	8cc\	-łoś-	ko-
8E-X\J 8G 8B	8cc#X\J	.	8cc#X\	-ci	-cham
=15	=15	=15	=15	=15	=15
8D\L	[2dd\	.	[2dd\	cud	tak
8G\J 8B	.	.	.	.	.
8G\L 8B	.	.	.	.	.
8D\J	.	.	.	.	.
=16	=16	=16	=16	=16	=16
8DD/L	8dd\L]	.	8dd\]	.	.
8D/J 8A 8d	16cc\L	.	16cc\	Pe-	I
.	16b\JJ	.	16b\	-łen	że
8D/L 8A 8d	8a\L	.	8a/	cza-	cie-
8DD/J	16b\L	.	16b\	-ru	-bie
.	16cc\JJ	.	16cc\	i	mi
=17	=17	=17	=17	=17	=17
8GG/L	[2b\	.	[2b\	złud	brak
8D/J 8G 8B	.	.	.	.	.
8D/L 8G 8B	.	.	.	.	.
8GG/J	.	.	.	.	.
=18	=18	=18	=18	=18	=18
8AA/L	8b\L]	.	8b\]	.	.
8E/J 8F# 8A	16a\L	.	16a/	Dał	Zresz-
.	16g\JJ	.	16g/	mi	-tą
8E\L 8F# 8A	8f#/L	.	8f#/	tę-	twe
8AA\J	16g/L	.	16g/	-czo-	ser-
.	16a/JJ	.	16a/	-we	-ce
!!LO:LB:g=original
=19	=19	=19	=19	=19	=19
*	*	*	*	*v:1	*v:2
8BB/L	[2g/	.	[2g/	sny	wie
8E/J 8G	.	.	.	.	.
8E/L 8G	.	.	.	.	.
16BB/L	.	.	.	.	.
16C/JJ	.	.	.	.	.
=20	=20	=20	=20	=20	=20
8C#X/L	8g/L]	.	8g/]	.	.
8E/J 8F# 8A#X	16f#/L	.	16f#/	Że	Cze-
.	16e/JJ	.	16e/	me	-mu
8BB/L	8d#X/L	.	8d#X/	szczęś-	ja
8D#X/J 8F# 8B	16e/L	.	16e/	-cie	ko-
.	16f#/JJ	.	16f#/	to	-cham
=21	=21	=21	=21	=21	=21
*	*^	*	*	*	*
8.EE/L 8.E	[2e/	8r	.	[2e/	ty.	cię.
.	.	4G\ 4B	.	.	.	.
16C/K	.	.	.	.	.	.
8BB/	.	.	.	.	.	.
8GG/J	.	8G\ 8B	.	.	.	.
*	*v	*v	*	*	*	*
=22	=22	=22	=22	=22	=22
4EE/ 4E	4G/ 4B 4e]	.	4e/]	.	.
8DD^^Z/ 8D	8f#^^Z/ 8cc 8dd	.	8rZ	.	.
*	*	*	*	*v:1.2.	*
!	!	!	!LO:TX:a:t=REFRAIN.	!	!
8r	8d/	.	8d/	Jak	.
=23||	=23||	=23||	=23||	=23||	=23||
8GG/L	[2b\ [2dd	p	[2dd\	cień	.
8D/J 8G 8B	.	.	.	.	.
8D/L 8G 8B	.	.	.	.	.
8DD/J	.	.	.	.	.
=24	=24	=24	=24	=24	=24
8GG/L	16b\LL] 16dd]	.	16dd\]	.	.
.	16a#X\ 16cc#X	<	16cc#X\	Chcę	.
8D/J 8G 8B	16b\ 16dd	.	16dd\	zaw-	.
.	16a#\JJ 16cc#	[	16cc#\	-sze	.
8D/L 8G 8B	16b\KL 16dd	>	16dd\	przy	.
.	8ccn\ 8ee	.	8ee\	to-	.
8DD/J	.	.	.	.	.
.	16b\Jk 16dd	]	16dd\	-bie	.
!!LO:PB:g=original
=25	=25	=25	=25	=25	=25
8GG/L	[2d/ [2b	.	[2b\	być	.
8D/J 8G 8B	.	.	.	.	.
8D/L 8G 8B	.	.	.	.	.
8DD/J	.	.	.	.	.
=26	=26	=26	=26	=26	=26
8GG/L	16d/LL] 16b]	<	16b\]	.	.
.	16c#X/ 16a#X	.	16a#X/	Je-	.
8D/J 8G 8B	16d/ 16b	.	16b\	-dy-	.
.	16c#/JJ 16a#	[	16a#/	-nie	.
8D/L 8G 8B	16d/KL 16b	>	16b\	dla	.
.	8e/ 8cc	.	8cc\	cie-	.
8DD/J	.	.	.	.	.
.	16d/Jk 16b	]	16b\	-bie	.
=27	=27	=27	=27	=27	=27
8GG/L	[2B/ [2g	.	[2g/	żyć	.
8D/J 8G	.	.	.	.	.
8D/L 8G	.	.	.	.	.
8DD/J	.	.	.	.	.
=28	=28	=28	=28	=28	=28
8GG/L	8B/L] 8g]	.	8g/]	.	.
8D/J 8G	16G/L 16B	.	16B/	Boś	.
.	16B/JJ 16d	.	16d/	mo-	.
8D/L 8G	8d/L 8g	<	8g/	-ją	.
8DD/J	8g/J 8b	[	8b\	tęs-	.
=29	=29	=29	=29	=29	=29
*	*^	*	*	*	*
!	!	!	!LO:DY:rj	!	!	!
8FF#\L	4b/	8d\L	f	4b\	-kno-	.
8D\J 8F# 8A	.	8c#X\J	.	.	.	.
8D\L 8F# 8A	[4a/	[4cn\	.	[4a/	-tą...	.
8DD\J	.	.	.	.	.	.
*	*v	*v	*	*	*	*
=30	=30	=30	=30	=30	=30
8FF#/L	4.c/] 4.a]	.	4.a/]	.	.
8D/J 8F# 8A	.	.	.	.	.
8D/L 8F# 8A	.	.	.	.	.
8DD/J	8d/	.	8d/	Jak	.
!!LO:LB:g=original
=31	=31	=31	=31	=31	=31
8FF#/L	[2a/ [2cc	.	[2cc\	cień	.
8D/J 8F# 8c	.	.	.	.	.
8D/L 8F# 8c	.	.	.	.	.
8DD/J	.	.	.	.	.
=32	=32	=32	=32	=32	=32
8FF#/L	16a\LL] 16cc]	.	16cc\]	.	.
.	16g#X\ 16b	.	16b\	Przy	.
8D/J 8F# 8B	16a\ 16cc	.	16cc\	to-	.
.	16g#\JJ 16b	.	16b\	-bie	.
8D/L 8F# 8A	16a\KL 16cc	.	16cc\	zo-	.
.	8b\ 8dd	.	8dd\	-sta-	.
8DD/J	.	.	.	.	.
.	16a\Jk 16cc	.	16cc\	-nę	.
=33	=33	=33	=33	=33	=33
8FF#/L	[2f#/ [2a	.	[2a/	już	.
8D/J 8F# 8A	.	.	.	.	.
8D/L 8F# 8A	.	.	.	.	.
8DD/J	.	.	.	.	.
=34	=34	=34	=34	=34	=34
8FF#/L	16f#/LL] 16a]	.	16a/]	.	.
.	16e#X/ 16g#X	.	16g#X/	Więc	.
8D/J 8F# 8A	16f#/ 16a	.	16a/	los	.
.	16e#/JJ 16g#	.	16g#/	swój	.
8D/L 8F# 8A	16f#/KL 16a	.	16a/	w me	.
.	8gn/ 8b	.	8b\	rę-	.
8DD/J	.	.	.	.	.
.	16f#/Jk 16a	.	16a/	-ce	.
=35	=35	=35	=35	=35	=35
8AA/L	[2d/ [2f#	.	[2f#/	złóż	.
8D/J 8F# 8A	.	.	.	.	.
8D/L 8F# 8A	.	.	.	.	.
8DD/J	.	.	.	.	.
=36	=36	=36	=36	=36	=36
8AA/L	8d/L] 8f#]	.	8f#/]	.	.
8D/J 8F# 8A	16c/L 16d	.	16d/	Prze-	.
.	16d/JJ 16f#	<	16f#/	-żyj	.
8D/L 8F# 8A	8f#/L 8a	.	8a/	baj-	.
8DD/J	8a/J 8cc	[[	8cc\	-kę	.
!!LO:LB:g=original
=37	=37	=37	=37	=37	=37
8GG/L	4cc\ 4ee	f	4ee\	zło-	.
8D/J 8G 8B	.	.	.	.	.
8D/L 8G 8B	[4b\ [4dd	.	[4dd\	-tą	.
8DD/J	.	.	.	.	.
=38	=38	=38	=38	=38	=38
8GG\ 8D 8B	8b\L] 8dd]	.	8dd\]	.	.
8r	8g\	.	8g/	Daj	.
4r	8f#\ 8a	.	8a/	słod-	.
.	8fn\J 8b	.	8b\	-kie	.
=39	=39	=39	=39	=39	=39
*	*^	*	*	*	*
8CC/L 8GG 8E	16cc/KL	4e\	.	16cc\	us-	.
.	8g/	.	.	8g/	-ta	.
8G/J	.	.	.	.	.	.
.	16cc/Jk	.	.	16cc\	czer-	.
8E\ 8c	8dd/L	8e\L 8g	.	8dd\	-wo-	.
8r	8cc/J	8e\J 8g	.	8cc\	-ne,	.
=40	=40	=40	=40	=40	=40	=40
8CC/L 8GG 8E-X	16cc/KL	4e-X\	.	16cc\	Piesz-	.
.	8g/	.	.	8g/	-czot	.
8G/J	.	.	.	.	.	.
.	16cc/Jk	.	.	16cc\	spra-	.
8E-\ 8c	8dd/L	8e-\L 8g	.	8dd\	-gnio-	.
8r	8cc/J	8e-\J 8g	.	8cc\	-ne,	.
*	*v	*v	*	*	*	*
=41	=41	=41	=41	=41	=41
8GG/L	16e/KL 16cc	.	16cc\	U-	.
.	8d/ 8b	.	8b\	-ca-	.
8BB/J 8D 8G	.	.	.	.	.
.	16c#X/Jk 16a#X	.	16a#X/	-łuj	.
8D\L 8G 8B	[4d/ [4b	.	[4b\	mnie...	.
8G\J	.	.	.	.	.
=42	=42	=42	=42	=42	=42
8GG/L	2d/] 2b]	.	2b\]	.	.
8GG/ 8G	.	.	.	.	.
8FF#/ 8F#	.	.	.	.	.
8FFn/J 8Fn	.	.	.	.	.
!!LO:LB:g=original
=43	=43	=43	=43	=43	=43
*	*^	*	*	*	*
8EE/L 8E	16a/KL	4c#X\	.	16a/	Spoj-	.
.	8e/	.	.	8e/	-rzyj	.
8E/J 8G	.	.	.	.	.	.
.	16a/Jk	.	.	16a/	mi	.
8E\L 8A	8b/L	8c#\L 8e	.	8b\	w o-	.
8GG\J 8G	8a/J	8c#\J 8e	.	8a/	-czy	.
=44	=44	=44	=44	=44	=44	=44
8C#X/L	8a/L	4c#X\	.	8a/	Szczę-	.
8E/J 8G 8A	16g/L	.	.	16g/	-ście	.
.	16f#/JJ	.	.	16f#/	o-	.
8AA/L	8e/L	4ryy	.	8e/	-to-	.
8E/J 8G 8A	16f#/L	.	.	16f#/	-czy	.
.	16g/JJ	.	.	16g/	nas	.
=45	=45	=45	=45	=45	=45	=45
8DD\L	4.a/	8r	.	4.a/	jak	.
8F#\J 8A	.	8d\L 8f#	<	.	.	.
8F#\L 8A	.	8d\J 8f#	.	.	.	.
8FF#\J	8d/	8ryy	[	8d/	we	.
=46	=46	=46	=46	=46	=46	=46
8DD\L	4.a#X/	8r	.	4.a#X/	śnie.	.
8F#\J 8A#X	.	8d\L 8f#	>	.	.	.
8F#\L 8A#	.	8d\J 8f#	.	.	.	.
8FF#\J	8d/	8ryy	]	8d/	Od	.
*	*v	*v	*	*	*	*
=47	=47	=47	=47	=47	=47
8GG/L	[2b\ [2dd	p	[2dd\	dziś	.
8D/J 8G 8B	.	.	.	.	.
8D/L 8G 8B	.	.	.	.	.
8DD/J	.	.	.	.	.
=48	=48	=48	=48	=48	=48
8GG/L	16b\LL] 16dd]	<	16dd\]	.	.
.	16a#X\ 16cc#X	.	16cc#X\	Znak	.
8D/J 8G 8B	16b\ 16dd	[	16dd\	jed-	.
.	16a#\JJ 16cc#	.	16cc#\	-ną,	.
8D/L 8G 8B	16b\KL 16dd	>	16dd\	je-	.
.	8ccn\ 8ee	.	8ee\	-dy-	.
8DD/J	.	.	.	.	.
.	16b\Jk 16dd	]	16dd\	-ną	.
!!LO:LB:g=original
=49	=49	=49	=49	=49	=49
8GG/L	[2d/ [2b	.	[2b\	myśl	.
8D/J 8G 8B	.	.	.	.	.
16D/LL 16G 16B	.	.	.	.	.
16GG/	.	.	.	.	.
16FF#X/	.	.	.	.	.
16FFn/JJ	.	.	.	.	.
=50	=50	=50	=50	=50	=50
8EE/L	16d/LL] 16b]	<	16b\]	.	.
.	16c#X/ 16a#X	.	16a#X/	Jak	.
8E/J	16d/ 16b	.	16b\	cień	.
.	16c#/JJ 16a#	[	16a#/	przy	.
8D\L 8E 8G#X	16d/KL 16b	>	16b\	to-	.
.	8e/ 8cc	.	8cc\	-bie	.
8GG#X\J	.	.	.	.	.
.	16d/Jk 16b	]	16b\	wciąż	.
=51	=51	=51	=51	=51	=51
8AA/L	[2c#X/ [2a	.	[2a/	iść	.
8E/J 8G 8A	.	.	.	.	.
16E/LL 16G 16A	.	.	.	.	.
16AA/	.	.	.	.	.
16GG#X/	.	.	.	.	.
16GGn/JJ	.	.	.	.	.
=52	=52	=52	=52	=52	=52
8FF#/L	16c#/LL] 16a]	.	16a/]	.	.
.	16B/ 16g#X	.	16g#X/	I	.
8D/J 8F# 8A	16cny/ 16a	.	16a/	tyl-	.
.	16B/JJ 16g#	.	16g#/	-ko	.
8D/L 8F# 8A	16c/KL 16a	.	16a/	dla	.
.	8d/ 8b	.	8b\	cie-	.
8DD/J	.	.	.	.	.
.	16c/Jk 16a	.	16a/	-bie	.
=53	=53	=53	=53	=53	=53
*^	*^	*	*	*	*
2GG/ 2G	8r	2B/ [2g	8r	.	[2g/	żyć...	.
.	8Gn\L	.	8B\L 8d	.	.	.	.
.	8E\	.	8A#X\ 8c#X	.	.	.	.
.	8E-X\J	.	8An\J 8cn	.	.	.	.
*v	*v	*	*	*	*	*	*
=54	=54	=54	=54	=54	=54	=54
8GG\L 8G	8g/L]	8G\L 8B	.	8g/]	.	.
(((8D\J	(>8f#/J	(8c\J 8d	.	8r	.	.
8GG\))) 8G	8g/)	8B\) 8d	.	4r	.	.
8r	8r	8r	.	.	.	.
*	*v	*v	*	*	*	*
!LO:TX:b:t=[segno]	!LO:TX:a:t=[segno]	!	!LO:TX:a:t=[segno]	!	!
==	==	==	==	==	==
*-	*-	*-	*-	*-	*-
!!!system-decoration: s1{(s2,s3)}
!!!RDF**kern: Z = caesura
!!!RDF**kern: < = below
!!!RDF**kern: > = above
!!!ENC: Berenika Jozajtis
!!!END: 2023-08-27
!!!ENC: Marta Chmielewska
!!!END: 2023-09-23
